X:1
T:Title
%%score { ( 1 3 ) | 2 }
L:1/8
M:6/8
K:G
V:1 treble nm="Grand Piano"
V:3 treble 
V:2 bass 
V:1
 z3 z2[Q:1/4=87] [B,D] | [B,G][B,G][B,G] [DB][DA][DG] | [EA]EE E2 [EG] | FFF FGA | %4
 [DB]3- [DB]2 [B,D] | [B,G][B,G][B,G] [DB][DA][DG] | [EA]EE E2 [EA] | GGG [GB]<[GB][FA] | %8
[M:5/8] G-G- G3 |[M:1/8] B |[M:3/4] [Bd]>[Ad] [Gd][Bd] [Ac][GB] | c6 | %12
 [Ac]>[Gc] [Fc][Ac]- [Ac]/[GB]/[FA] | B6 | [B,D][B,G] [B,G][B,G] [CA][DB] | c4 z2 | %16
 G>G G[GB]/[GB]/- [GB][FA] |[M:5/8] [B,G]-[B,G]- [B,G]3 |] %18
V:2
 z3 z2 [G,,G,] | [G,,G,][G,,G,][G,,G,] [G,,G,][A,,F,][B,,G,] | %2
 [C,G,][C,G,C][C,G,C] [C,G,C]2 [C,C] | [D,A,D][D,A,D][D,A,D] [D,A,D][D,B,D][D,F,D] | %4
 [G,,G,]3- [G,,G,]2 [G,,G,] | [G,,G,][G,,G,][G,,G,] [G,,G,][A,,F,][B,,G,] | %6
 [C,G,][C,G,C][C,G,C] [C,G,C]2 [C,C] | [D,B,D][D,B,D][D,B,D] [D,D]<[D,D][D,C] | %8
[M:5/8] [G,B,]-[G,B,]- [G,B,]3 |[M:1/8][K:treble] [G,DG] | %10
[M:3/4] [G,D]>[G,C] [G,B,][G,D][K:bass] [G,D][G,D] | [D,D]>[D,D] [D,D] [D,D]2 [D,D] | %12
 [D,D]>[D,D] [D,D][D,D]- [D,D]/[D,D]/[D,D] | [G,DG]>[G,D][K:bass] [G,D] G,2 [G,,G,] | %14
 [G,,G,][G,,G,] [G,,G,][G,,G,] [G,,G,][G,,G,] | [C,G,][C,G,] [C,G,] [C,G,]2 [C,C] | %16
 [D,B,D]>[D,B,D] [D,B,D][D,D]/[D,D]/- [D,D][D,C] |[M:5/8] [G,,G,]-[G,,G,]- [G,,G,]3 |] %18
V:3
 x6 | x6 | x6 | x6 | x6 | x6 | x6 | x6 |[M:5/8] x5 |[M:1/8] x |[M:3/4] x6 | A>F .E2 z [Ac] | x6 | %13
 z z/ F/ E D2 [B,D] | x6 | EE E [CE]2 [EA] | x6 |[M:5/8] x5 |] %18

